symbols/web/9k/materialsymbolsrounded/9k_wght300grad200_24px.svg

<svg xmlns="http://www.w3.org/2000/svg" height="24" width="24"><path d="M13.55 14.9q.25 0 .413-.175.162-.175.162-.425v-1.75l1.9 2.15q.1.1.2.15.1.05.225.05.4 0 .55-.35.15-.35-.1-.625l-1.7-1.95 1.775-1.925q.25-.3.087-.625-.162-.325-.537-.325-.15 0-.262.062-.113.063-.188.138l-1.95 2.15V9.675q0-.225-.162-.4Q13.8 9.1 13.55 9.1q-.275 0-.437.175-.163.175-.163.425v4.625q0 .225.163.4.162.175.437.175Zm-6.2 0h2.75q.375 0 .625-.263.25-.262.25-.637v-4q0-.4-.25-.65T10.1 9.1H7.65q-.4 0-.65.25t-.25.65v1.55q0 .375.25.638.25.262.625.262H9.8v1.25H7.325q-.225 0-.4.175-.175.175-.175.425t.162.425q.163.175.438.175Zm.575-3.35V10H9.8v1.55ZM5.3 21.15q-1.025 0-1.738-.712-.712-.713-.712-1.738V5.3q0-1.025.712-1.738.713-.712 1.738-.712h13.4q1.025 0 1.738.712.712.713.712 1.738v13.4q0 1.025-.712 1.738-.713.712-1.738.712Zm0-2.15h13.4q.125 0 .213-.087.087-.088.087-.213V5.3q0-.125-.087-.212Q18.825 5 18.7 5H5.3q-.125 0-.212.088Q5 5.175 5 5.3v13.4q0 .125.088.213.087.087.212.087ZM5 5v14V5Z"/></svg>

<svg xmlns="http://www.w3.org/2000/svg" height="24" width="24"><path d="M13.55 14.9Q13.8 14.9 13.963 14.725Q14.125 14.55 14.125 14.3V12.55L16.025 14.7Q16.125 14.8 16.225 14.85Q16.325 14.9 16.45 14.9Q16.85 14.9 17 14.55Q17.15 14.2 16.9 13.925L15.2 11.975L16.975 10.05Q17.225 9.75 17.062 9.425Q16.9 9.1 16.525 9.1Q16.375 9.1 16.263 9.162Q16.15 9.225 16.075 9.3L14.125 11.45V9.675Q14.125 9.45 13.963 9.275Q13.8 9.1 13.55 9.1Q13.275 9.1 13.113 9.275Q12.95 9.45 12.95 9.7V14.325Q12.95 14.55 13.113 14.725Q13.275 14.9 13.55 14.9ZM7.35 14.9H10.1Q10.475 14.9 10.725 14.637Q10.975 14.375 10.975 14V10Q10.975 9.6 10.725 9.35Q10.475 9.1 10.1 9.1H7.65Q7.25 9.1 7 9.35Q6.75 9.6 6.75 10V11.55Q6.75 11.925 7 12.188Q7.25 12.45 7.625 12.45H9.8V13.7H7.325Q7.1 13.7 6.925 13.875Q6.75 14.05 6.75 14.3Q6.75 14.55 6.912 14.725Q7.075 14.9 7.35 14.9ZM7.925 11.55V10H9.8V11.55ZM5.3 21.15Q4.275 21.15 3.562 20.438Q2.85 19.725 2.85 18.7V5.3Q2.85 4.275 3.562 3.562Q4.275 2.85 5.3 2.85H18.7Q19.725 2.85 20.438 3.562Q21.15 4.275 21.15 5.3V18.7Q21.15 19.725 20.438 20.438Q19.725 21.15 18.7 21.15ZM5.3 19H18.7Q18.825 19 18.913 18.913Q19 18.825 19 18.7V5.3Q19 5.175 18.913 5.088Q18.825 5 18.7 5H5.3Q5.175 5 5.088 5.088Q5 5.175 5 5.3V18.7Q5 18.825 5.088 18.913Q5.175 19 5.3 19ZM5 5Q5 5 5 5.088Q5 5.175 5 5.3V18.7Q5 18.825 5 18.913Q5 19 5 19Q5 19 5 18.913Q5 18.825 5 18.7V5.3Q5 5.175 5 5.088Q5 5 5 5Z"/></svg>
